X: 3019
T: Battle Of The Somme, The
R: slip jig
M: 9/8
K: Dmajor
f>ef a3 f2 d|d>cB B3 A2 d|d>cd f3 A2 f|f<af e3- e2 f|
f>ef a3 f2 d|d>cB B3 A2 d|d>cd f3 A2 e|e<dc d3- d2:|
d>cd e2 A e2 c|efg f<af d2 A|d>cd e2 A e2 c|f<af e3- e2 f|
f>ef a3 f2 d|d>cB B3 A2 d|d>cd f3 A2 e|e<dc d3- d2:|

